X:1
T:The Constellations Suite
T:TOM BRIER NEIL BLAZE 
T:The Constellations Suite
T:Part II: Triangulum
T:https://musescore.com/user/32597310/scores/5949613 Transcribed from: Album: "Constellations", Track 12: "Triangulum" 
C:Tom Brier
C:Neil Blaze
%%score { 1 | 2 }
L:1/8
Q:1/2=115
M:4/4
K:Eb
V:1 treble nm="Piano" snm="Pno."
V:2 bass 
V:1
"^Allegro."!mf! egB z c e2 d- | dgB z c d2 [Ec]- | [Ec][Ae][Ec] z [EB] [B,G]2 [DB] | %3
 z2 [D^FB][=E^Gc]- [EGc] [F^Ad]3 |:!mf! egB z c e2 d- | d z ^f^g- g=a b2 | egB z c e2 d- | %7
 d z ^f^g- g=a b2 |!8va(! [e'g']bg [_d'f']af!8va)! [b=d']f |d [ac']ec [gb]ec z | %10
!f! [_ce]_GE [Ac]E_C [_FA]C |A, [D^F]=A,^F, [DG]F B2 |!mf! egB z c e2 d- | d z ^f^g- g=a b2 | %14
 egB z c e2 d- | d z ^f^g- g=a b2 |!f! be'e _c'e'e c'=e' |=e b=e'!8va(!f [=ac']f'f [bd'] | %18
f'f [bd']^f'^f [d'f']g'b' | e'2!8va)! z2 [Ad^fb]4 ::[K:Gb]!mf! !>!bg'e' ge'b !>!ae' | %21
c' ec'a e2 z2 | !>!af'=d' fd'b !>!ge' |b ebg B2 z !>!__B- | Bgec c'__bag- | gf=dc B A2 G- | %26
 Geg z f=d z _f | z ^c=d z Bc' z !>!b- | bg'e' ee'b !>!ae' |c' ec'a e2 z2 | %30
 !>!af'=d' =dd'b !>!ge' |b ebg B2 z !>!__B- |!f! Beg !>!A=df !>!G_B |e !>!EGc !>!CEA !>!B, | %34
EG !>!__B,=DG !>!A,FD | [G,B,E]2 z2 [A=d^fb]4 :|!mf! e=gB z =c e2 =d- | d z ^f^g- g=a b2 | %38
 e=gB z =c e2 =d- | d z ^f^g- g=a b2 |!8va(! [e'=g']b=g [d'f']af!8va)! [b=d']f | %41
=d [a=c']e=c [=gb]ec z |!f! [ce]GE [Ac]EC [_FA]C |A, [=D^F]=A,^F, [D=G]F B2 | %44
!mf! e=gB z =c e2 =d- | d z ^f^g- g=a b2 | e=gB z =c e2 =d- | d z ^f^g- g=a b2 | %48
!f! be'e c'e'e c'=e' |=e b=e'!8va(!f [=a=c']f'f [b=d'] |f'f [b=d']^f'^f [d'f']=g'b' | %51
 e'2!8va)! z2 [E=GBe]4 ||!mf! e=gB z =c e2 =d- | d=gB z =c =d2 [=E^Gc]- | %54
 [EGc]2 [^F^A=d][^G^B=e]- [GBe] [_Bdg]2 =B- | [=E^GB=e]2 z2 [e^g=b=d'=e']4 |: %56
[K:A] [^B^d]EA [ce]EA [=F=f]2- | [Ff]=FA=c =fcAF | [^Ac]EA [cf]FA [FBd]2- | [FBd]FBd fdBF | %60
 [df]BG eBG dA | F cAF BcBA | G^Be FB^d [CEGc]2- | [CEGc]2 z2{B^Bc=d^d} (eE)G=B | %64
 [^B^d]EA [ce]EA [=F=f]2- | [Ff]=FA=c =fcAF | [^Ac]EA [cf]FA [FBd]2- | [FBd]FBd fdBF | %68
 A=FA =f=cf [A^ca]e |f ece [A^d]Bg [Adf]- | [Adf]^d [Ge]c [F=d][Ec][DB][CA]- |1 %71
 [CA]2 (E[G^Be]-) [GBe]!8va(!(e [g^be']2)!8va)! :|2 [CA]2 z2 [Acea]4 ||3 [CA]2 z2 [Acea]4 || %74
 fcA gcA ae |c AFc fA=c ^c- | cA =cAB AGF- | F4 z2 e/^e/f/g/ | ae=c bec =c'=g |e =cA_e ace =e- | %80
 e=c _ecd cBA- | A4 z4 | [eg]BG [ea]=cA [gb]d |B [a=c']e=c [a^c']e^c [ad'] | %84
fd [a_e']=f_e [e'a']ba | [gd'e']2 z2!8va(! [e'g'b'e'']4!8va)! :|!f! [^B^d]EA [ce]EA- [=FA=c=f]2- | %87
 [FAcf]=FA=c =fcAF | [^Ac]EA [cf]FA [FBd]2- | [FBd]FBd fdBF | [df]BG eBG dA |F cAF BcBA | %92
 G^Be FB^d [CEGc]2- | [CEGc]2 z2{B^Bc=d^d} (eE)G=B | [^B^d]EA [ce]EA [=FA=c=f]2- | %95
 [FAcf]=FA=c =fcAF | [^Ac]EA [cf]FA [FBd]2- | [FBd]FBd fdBF | A=FA =f=cf [A^ca]e | %99
f ece [A^d]Bg [Adf]- | [Adf]^d [Ge]c [F=d][Ec][DB][CA]- | [CA]2 z2!8va(! [ac'e'a']4!8va)! |] %102
V:2
 [G,B,E]2 z [B,EG]- [B,EG]2 z2 | [B,DG]2 z [G,B,D]- [G,B,D]2 z2 | %2
 [E,A,C]2 z [E,G,B,]- [E,G,B,]2 [B,,E,G,]2 | [B,,F,A,] z z2 z2 [B,,,B,,]2 |: %4
 [E,,E,] z2 [G,B,E] z2 [B,,,B,,]2- | [B,,,B,,] [^F,B,D]3 [^G,C=E]2 [^A,D^F]2 | %6
 [E,,E,] z2 [G,B,E] z2 [B,,,B,,]2- | [B,,,B,,] [^F,B,D]3 [^G,C=E]2 [^A,D^F]2 | %8
 [EB]3 [_DA]3 [B,F]2- | [B,F] [A,E]3 [E,B,]2 [C,G,C]2 | [_C,_G,_C]3 [A,,E,A,]3 [_F,,C,_F,]2- | %11
 [F,,C,F,] [D,,=A,,D,]3 [D,,B,,D,]2 [B,,,B,,]2 | [E,,E,] z2 [G,B,E] z2 [B,,,B,,]2- | %13
 [B,,,B,,] [^F,B,D]3 [^G,C=E]2 [^A,D^F]2 | [E,,E,] z2 [G,B,E] z2 [B,,,B,,]2- | %15
 [B,,,B,,] [^F,B,D]3 [^G,C=E]2 [^A,D^F]2 | [E,,B,,E,] z _C,,-[C,,_G,,_C,] z _F,,-[F,,C,_F,] z | %17
 C,,-[C,,G,,C,] z F,,- [F,,C,F,] z B,,,-[B,,,F,,B,,] | %18
 z D,,-[D,,B,,D,] z B,,,-[B,,,F,,B,,] z E,,- | [E,,B,,E,]2 [B,,,B,,]2 [A,D^F]2 [B,,,B,,]2 :: %20
[K:Gb] [E,,E,] z2 [G,B,E] z2 [A,,,A,,]2- | [A,,,A,,] [A,CE]3 [E,,E,]2 [C,,C,] z | %22
 [B,,,B,,]3 [F,A,B,=D] z2 [E,,E,]2- | [E,,E,] [G,B,E]3 [B,,B,]2 [G,,G,] z | %24
 [C,G,C]3 [G,__B,CE] z2 [B,,_B,]2- | [B,,B,] [A,B,=D]3 [G,,G,]2 [F,,F,] z | %26
 [E,,E,]3 [=A,=CE] z2 [_A,_C__E] z | [=G,B,D]3 [A,B,=D]- [A,B,D] z [B,,,B,,] z | %28
 [E,,E,] z2 [G,B,E] z2 [A,,,A,,]2- | [A,,,A,,] [A,CE]3 [E,,E,]2 [C,,C,] z | %30
 [B,,,B,,]3 [F,A,B,=D] z2 [E,,E,]2- | [E,,E,] [G,B,E]3 [B,,B,]2 [G,,G,] z | %32
 [C,E,G,C]3 [B,,=D,F,B,]3 [E,,G,,B,,E,]2- | %33
 [E,,G,,B,,E,] [C,,E,,G,,C,]3!8vb(! [A,,,C,,E,,A,,]3 [B,,,E,,G,,B,,]- | %34
 [B,,,E,,G,,B,,]2 [__B,,,E,,G,,__B,,]3 [A,,,=D,,F,,A,,]3 | %35
 [G,,,B,,,E,,G,,]2!8vb)! [B,,,B,,]2 [A,=D^F]2 [B,,,B,,]2 :| [E,,E,] z2 [=G,B,E] z2 [B,,,B,,]2- | %37
 [B,,,B,,] [^F,B,=D]3 [^G,=C=E]2 [^A,D^F]2 | [E,,E,] z2 [=G,B,E] z2 [B,,,B,,]2- | %39
 [B,,,B,,] [^F,B,=D]3 [^G,=C=E]2 [^A,D^F]2 | [EB]3 [DA]3 [B,F]2- | %41
 [B,F] [A,E]3 [E,B,]2 [=C,=G,=C]2 | [C,G,C]3 [A,,E,A,]3 [_F,,C,_F,]2- | %43
 [F,,C,F,] [=D,,=A,,=D,]3 [D,,B,,D,]2 [B,,,B,,]2 | [E,,E,] z2 [=G,B,E] z2 [B,,,B,,]2- | %45
 [B,,,B,,] [^F,B,=D]3 [^G,=C=E]2 [^A,D^F]2 | [E,,E,] z2 [=G,B,E] z2 [B,,,B,,]2- | %47
 [B,,,B,,] [^F,B,=D]3 [^G,=C=E]2 [^A,D^F]2 | [E,,B,,E,] z C,,-[C,,G,,C,] z _F,,-[F,,C,_F,] z | %49
 =C,,-[C,,=G,,=C,] z F,,- [F,,C,F,] z B,,,-[B,,,F,,B,,] | %50
 z =D,,-[D,,B,,=D,] z B,,,-[B,,,F,,B,,] z E,,- | [E,,B,,E,]2 [B,,,B,,]2 [E,,,E,,]4 || %52
 [=G,B,E]2 z [B,E=G]- [B,EG]2 z2 | [B,=D=G]2 z [=G,B,D]- [G,B,D]2 z2 | %54
 [=E,^G,=C]2 [^F,^A,=D][G,^B,=E]- [G,B,E] [_B,DG]2 z | [=E,^G,=B,=D]2 z2 [=E,,,=B,,,=E,,]4 |: %56
[K:A] [A,,,E,,A,,]3 [E,A,C] z2 [=F,,=F,]2- | [F,,F,] [=F,A,=C]3 [A,,A,]2 [=F,,F,] z | %58
 [F,,F,]3 [E,F,^A,] z2 [B,,,B,,]2- | [B,,,B,,] [F,B,D]3 [D,,D,]2 [F,,F,] z | %60
 [E,,E,]3 [E,G,B,D]3 [F,,F,]2- | [F,,F,] [F,A,C]3 [F,,F,]2 [A,,A,]2 | %62
 [G,,G,]3 [G,^B,^DF]3 [C,,C,]2- | [C,,C,] [E,G,C]2 z [E,G,B,D]2 [E,,E,]2 | %64
 [A,,,A,,]3 [E,A,C] z2 [=F,,=C,=F,]2- | [F,,C,F,] [=F,A,=C]3 [A,,A,]2 [=F,,F,] z | %66
 [F,,F,]3 [E,F,^A,] z2 [B,,,B,,]2- | [B,,,B,,] [F,B,D]3 [D,,D,]2 [F,,F,]2 | %68
 [=F,,=F,]3 [F,A,=C]3 [E,,E,]2- | [E,,E,] [E,A,C]3 [F,,F,]3 [F,A,B,^D]- | %70
 [F,A,B,D]2 [E,G,B,=D]3 [E,,E,]3 |1 [A,,A,]2 [E,,E,]2 [E,G,^B,]2 [E,,E,]2 :|2 %72
 [A,,A,]2 [E,,E,]2 [A,,,A,,]4 ||3 [A,,A,]2 [E,,E,]2 [A,,,A,,]4 || [F,A,C]3 [=F,A,C]3 [E,A,C]2- | %75
 [E,A,C] [_E,A,C]3 [D,A,=C]3 [C,A,^C]- | [C,A,C]2 [D,A,=C]3 [^E,G,B,]3 | %77
 [F,A,]2 [C,,C,]2 [F,,,F,,]2 z2 | [A,=CE]3 [G,CE]3 [=G,CE]2- | [G,CE] [=G,=CE]3 [F,C_E]3 [E,C=E]- | %80
 [E,CE]2 [F,=C_E]3 [G,B,D]3 | [A,=C]2 [E,,E,]2 [A,,,A,,]2 z2 | %82
 [D,E,G,B,]3 [=C,E,A,]3 [B,,D,E,G,]2- | [B,,D,E,G,] [A,,E,A,]3 [=G,,C,E,=G,]3 [F,,A,,D,F,]- | %84
 [F,,A,,D,F,]2 [=F,,A,,=C,=F,]3 [=C,,C,]3 | [B,,,B,,]2 [E,,,E,,]2 [E,G,B,D]2 [E,,,E,,]2 :| %86
!f! [A,,,E,,A,,]3 [E,A,C]3 [=F,,,=F,,]2- | [F,,,F,,] [=A,,,A,,]3 [=C,,=C,]2 [=F,,=F,]2 | %88
 [F,,F,]3 [E,F,^A,C]3 [B,,,B,,]2- | [B,,,B,,] [F,,F,]3 [D,,D,]2 [B,,,B,,]2 | %90
 [E,,E,]3 [E,G,B,D]3 [F,,F,]2- | [F,,F,] [F,A,C]3 [F,,F,]2 [A,,A,]2 | %92
 [G,,G,]3 [G,^B,^DF]3 [C,,C,]2- | [C,,C,] [E,G,C]2 z [E,G,B,D]2 [E,,E,]2 | %94
 [A,,,A,,]3 [E,A,C] z2 [=F,,,=F,,]2- | [F,,,F,,] [=A,,,A,,]3 [=C,,=C,]2 [=F,,=F,]2 | %96
 [F,,F,]3 [E,F,^A,C] z2 [B,,,B,,]2- | [B,,,B,,] [F,,F,]3 [D,,D,]2 [B,,,B,,]2 | %98
 [=F,,,=F,,]3 [=F,A,=C]3 [E,,,E,,]2- | [E,,,E,,] [E,A,C]3 [F,,,F,,]3 [F,A,B,^D]- | %100
 [F,A,B,D]2 [E,G,B,=D]3 [E,,E,]3 | [A,,,A,,]2 E,,2 [A,,,A,,]4 |] %102

